assets/luts/cinematic.cube
# Cinematic LUT - AI Conduit
TITLE "Cinematic"
LUT_3D_SIZE 33
0.006358 0.026024 0.075890
0.009294 0.025711 0.074640
0.013060 0.025399 0.073390
0.017944 0.025086 0.072140
0.024329 0.024774 0.070890
0.032712 0.024461 0.069640
0.043733 0.024149 0.068390
0.058195 0.023836 0.067140
0.077065 0.023524 0.065890
0.101460 0.023211 0.064640
0.132566 0.022899 0.063390
0.171499 0.022586 0.062140
0.219065 0.022274 0.060890
0.275460 0.021961 0.059640
0.339963 0.021649 0.058390
0.410754 0.021336 0.057140
0.485000 0.021024 0.055890
0.559246 0.020711 0.054640
0.630037 0.020399 0.053390
0.694540 0.020086 0.052140
0.750935 0.019774 0.050890
0.798501 0.019461 0.049640
0.837434 0.019149 0.048390
0.868540 0.018836 0.047140
0.892935 0.018524 0.045890
0.911805 0.018211 0.044640
0.926267 0.017899 0.043390
0.937288 0.017586 0.042140
0.945671 0.017274 0.040890
0.952056 0.016961 0.039640
0.956940 0.016649 0.038390
0.960706 0.016336 0.037140
0.963642 0.016024 0.035890
0.006983 0.027901 0.074640
0.009919 0.027588 0.073390
0.013685 0.027276 0.072140
0.018569 0.026963 0.070890
0.024954 0.026651 0.069640
0.033337 0.026338 0.068390
0.044358 0.026026 0.067140
0.058820 0.025713 0.065890
0.077690 0.025401 0.064640
0.102085 0.025088 0.063390
0.133191 0.024776 0.062140
0.172124 0.024463 0.060890
0.219690 0.024151 0.059640
0.276085 0.023838 0.058390
0.340588 0.023526 0.057140
0.411379 0.023213 0.055890
0.485625 0.022901 0.054640
0.559871 0.022588 0.053390
0.630662 0.022276 0.052140
0.695165 0.021963 0.050890
0.751560 0.021651 0.049640
0.799126 0.021338 0.048390
0.838059 0.021026 0.047140
0.869165 0.020713 0.045890
0.893560 0.020401 0.044640
0.912430 0.020088 0.043390
0.926892 0.019776 0.042140
0.937913 0.019463 0.040890
0.946296 0.019151 0.039640
0.952681 0.018838 0.038390
0.957565 0.018526 0.037140
0.961331 0.018213 0.035890
0.963642 0.018213 0.035890
0.007608 0.030563 0.073390
0.010544 0.030251 0.072140
0.014310 0.029938 0.070890
0.019194 0.029626 0.069640
0.025579 0.029313 0.068390
0.033962 0.029001 0.067140
0.044983 0.028688 0.065890
0.059445 0.028376 0.064640
0.078315 0.028063 0.063390
0.102710 0.027751 0.062140
0.133816 0.027438 0.060890
0.172749 0.027126 0.059640
0.220315 0.026813 0.058390
0.276710 0.026501 0.057140
0.341213 0.026188 0.055890
0.412004 0.025876 0.054640
0.486250 0.025563 0.053390
0.560496 0.025251 0.052140
0.631287 0.024938 0.050890
0.695790 0.024626 0.049640
0.752185 0.024313 0.048390
0.799751 0.024001 0.047140
0.838684 0.023688 0.045890
0.869790 0.023376 0.044640
0.894185 0.023063 0.043390
0.913055 0.022751 0.042140
0.927517 0.022438 0.040890
0.938538 0.022126 0.039640
0.946921 0.021813 0.038390
0.953306 0.021501 0.037140
0.958190 0.021188 0.035890
0.961331 0.021188 0.035890
0.963642 0.021188 0.035890
0.008233 0.034286 0.072140
0.011169 0.033973 0.070890
0.014935 0.033661 0.069640
0.019819 0.033348 0.068390
0.026204 0.033036 0.067140
0.034587 0.032723 0.065890
0.045608 0.032411 0.064640
0.060070 0.032098 0.063390
0.078940 0.031786 0.062140
0.103335 0.031473 0.060890
0.134441 0.031161 0.059640
0.173374 0.030848 0.058390
0.220940 0.030536 0.057140
0.277335 0.030223 0.055890
0.341838 0.029911 0.054640
0.412629 0.029598 0.053390
0.486875 0.029286 0.052140
0.561121 0.028973 0.050890
0.631912 0.028661 0.049640
0.696415 0.028348 0.048390
0.752810 0.028036 0.047140
0.800376 0.027723 0.045890
0.839309 0.027411 0.044640
0.870415 0.027098 0.043390
0.894810 0.026786 0.042140
0.913680 0.026473 0.040890
0.928142 0.026161 0.039640
0.939163 0.025848 0.038390
0.947546 0.025536 0.037140
0.953931 0.025223 0.035890
0.958190 0.025223 0.035890
0.961331 0.025223 0.035890
0.963642 0.025223 0.035890
0.008858 0.039430 0.070890
0.011794 0.039117 0.069640
0.015560 0.038805 0.068390
0.020444 0.038492 0.067140
0.026829 0.038180 0.065890
0.035212 0.037867 0.064640
0.046233 0.037555 0.063390
0.060695 0.037242 0.062140
0.079565 0.036930 0.060890
0.103960 0.036617 0.059640
0.135066 0.036305 0.058390
0.173999 0.035992 0.057140
0.221565 0.035680 0.055890
0.277960 0.035367 0.054640
0.342463 0.035055 0.053390
0.413254 0.034742 0.052140
0.487500 0.034430 0.050890
0.561746 0.034117 0.049640
0.632537 0.033805 0.048390
0.697040 0.033492 0.047140
0.753435 0.033180 0.045890
0.801001 0.032867 0.044640
0.839934 0.032555 0.043390
0.871040 0.032242 0.042140
0.895435 0.031930 0.040890
0.914305 0.031617 0.039640
0.928767 0.031305 0.038390
0.939788 0.030992 0.037140
0.948171 0.030680 0.035890
0.953931 0.030680 0.035890
0.958190 0.030680 0.035890
0.961331 0.030680 0.035890
0.963642 0.030680 0.035890
0.009483 0.046467 0.069640
0.012419 0.046154 0.068390
0.016185 0.045842 0.067140
0.021069 0.045529 0.065890
0.027454 0.045217 0.064640
0.035837 0.044904 0.063390
0.046858 0.044592 0.062140
0.061320 0.044279 0.060890
0.080190 0.043967 0.059640
0.104585 0.043654 0.058390
0.135691 0.043342 0.057140
0.174624 0.043029 0.055890
0.222190 0.042717 0.054640
0.278585 0.042404 0.053390
0.343088 0.042092 0.052140
0.413879 0.041779 0.050890
0.488125 0.041467 0.049640
0.562371 0.041154 0.048390
0.633162 0.040842 0.047140
0.697665 0.040529 0.045890
0.754060 0.040217 0.044640
0.801626 0.039904 0.043390
0.840559 0.039592 0.042140
0.871665 0.039279 0.040890
0.896060 0.038967 0.039640
0.914930 0.038654 0.038390
0.929392 0.038342 0.037140
0.940413 0.038029 0.035890
0.948171 0.038029 0.035890
0.953931 0.038029 0.035890
0.958190 0.038029 0.035890
0.961331 0.038029 0.035890
0.963642 0.038029 0.035890
0.010108 0.056004 0.068390
0.013044 0.055691 0.067140
0.016810 0.055379 0.065890
0.021694 0.055066 0.064640
0.028079 0.054754 0.063390
0.036462 0.054441 0.062140
0.047483 0.054129 0.060890
0.061945 0.053816 0.059640
0.080815 0.053504 0.058390
0.105210 0.053191 0.057140
0.136316 0.052879 0.055890
0.175249 0.052566 0.054640
0.222815 0.052254 0.053390
0.279210 0.051941 0.052140
0.343713 0.051629 0.050890
0.414504 0.051316 0.049640
0.488750 0.051004 0.048390
0.562996 0.050691 0.047140
0.633787 0.050379 0.045890
0.698290 0.050066 0.044640
0.754685 0.049754 0.043390
0.802251 0.049441 0.042140
0.841184 0.049129 0.040890
0.872290 0.048816 0.039640
0.896685 0.048504 0.038390
0.915555 0.048191 0.037140
0.930017 0.047879 0.035890
0.940413 0.047879 0.035890
0.948171 0.047879 0.035890
0.953931 0.047879 0.035890
0.958190 0.047879 0.035890
0.961331 0.047879 0.035890
0.963642 0.047879 0.035890
0.010733 0.068800 0.067140
0.013669 0.068487 0.065890
0.017435 0.068175 0.064640
0.022319 0.067862 0.063390
0.028704 0.067550 0.062140
0.037087 0.067237 0.060890
0.048108 0.066925 0.059640
0.062570 0.066612 0.058390
0.081440 0.066300 0.057140
0.105835 0.065987 0.055890
0.136941 0.065675 0.054640
0.175874 0.065362 0.053390
0.223440 0.065050 0.052140
0.279835 0.064737 0.050890
0.344338 0.064425 0.049640
0.415129 0.064112 0.048390
0.489375 0.063800 0.047140
0.563621 0.063487 0.045890
0.634412 0.063175 0.044640
0.698915 0.062862 0.043390
0.755310 0.062550 0.042140
0.802876 0.062237 0.040890
0.841809 0.061925 0.039640
0.872915 0.061612 0.038390
0.897310 0.061300 0.037140
0.916180 0.060987 0.035890
0.930017 0.060987 0.035890
0.940413 0.060987 0.035890
0.948171 0.060987 0.035890
0.953931 0.060987 0.035890
0.958190 0.060987 0.035890
0.961331 0.060987 0.035890
0.963642 0.060987 0.035890
0.011358 0.085772 0.065890
0.014294 0.085460 0.064640
0.018060 0.085147 0.063390
0.022944 0.084835 0.062140
0.029329 0.084522 0.060890
0.037712 0.084210 0.059640
0.048733 0.083897 0.058390
0.063195 0.083585 0.057140
0.082065 0.083272 0.055890
0.106460 0.082960 0.054640
0.137566 0.082647 0.053390
0.176499 0.082335 0.052140
0.224065 0.082022 0.050890
0.280460 0.081710 0.049640
0.344963 0.081397 0.048390
0.415754 0.081085 0.047140
0.490000 0.080772 0.045890
0.564246 0.080460 0.044640
0.635037 0.080147 0.043390
0.699540 0.079835 0.042140
0.755935 0.079522 0.040890
0.803501 0.079210 0.039640
0.842434 0.078897 0.038390
0.873540 0.078585 0.037140
0.897935 0.078272 0.035890
0.916180 0.078272 0.035890
0.930017 0.078272 0.035890
0.940413 0.078272 0.035890
0.948171 0.078272 0.035890
0.953931 0.078272 0.035890
0.958190 0.078272 0.035890
0.961331 0.078272 0.035890
0.963642 0.078272 0.035890
0.011983 0.107978 0.064640
0.014919 0.107666 0.063390
0.018685 0.107353 0.062140
0.023569 0.107041 0.060890
0.029954 0.106728 0.059640
0.038337 0.106416 0.058390
0.049358 0.106103 0.057140
0.063820 0.105791 0.055890
0.082690 0.105478 0.054640
0.107085 0.105166 0.053390
0.138191 0.104853 0.052140
0.177124 0.104541 0.050890
0.224690 0.104228 0.049640
0.281085 0.103916 0.048390
0.345588 0.103603 0.047140
0.416379 0.103291 0.045890
0.490625 0.102978 0.044640
0.564871 0.102666 0.043390
0.635662 0.102353 0.042140
0.700165 0.102041 0.040890
0.756560 0.101728 0.039640
0.804126 0.101416 0.038390
0.843059 0.101103 0.037140
0.874165 0.100791 0.035890
0.897935 0.100791 0.035890
0.916180 0.100791 0.035890
0.930017 0.100791 0.035890
0.940413 0.100791 0.035890
0.948171 0.100791 0.035890
0.953931 0.100791 0.035890
0.958190 0.100791 0.035890
0.961331 0.100791 0.035890
0.963642 0.100791 0.035890
0.012608 0.136543 0.063390
0.015544 0.136230 0.062140
0.019310 0.135918 0.060890
0.024194 0.135605 0.059640
0.030579 0.135293 0.058390
0.038962 0.134980 0.057140
0.049983 0.134668 0.055890
0.064445 0.134355 0.054640
0.083315 0.134043 0.053390
0.107710 0.133730 0.052140
0.138816 0.133418 0.050890
0.177749 0.133105 0.049640
0.225315 0.132793 0.048390
0.281710 0.132480 0.047140
0.346213 0.132168 0.045890
0.417004 0.131855 0.044640
0.491250 0.131543 0.043390
0.565496 0.131230 0.042140
0.636287 0.130918 0.040890
0.700790 0.130605 0.039640
0.757185 0.130293 0.038390
0.804751 0.129980 0.037140
0.843684 0.129668 0.035890
0.874165 0.129668 0.035890
0.897935 0.129668 0.035890
0.916180 0.129668 0.035890
0.930017 0.129668 0.035890
0.940413 0.129668 0.035890
0.948171 0.129668 0.035890
0.953931 0.129668 0.035890
0.958190 0.129668 0.035890
0.961331 0.129668 0.035890
0.963642 0.129668 0.035890
0.013233 0.172522 0.062140
0.016169 0.172209 0.060890
0.019935 0.171897 0.059640
0.024819 0.171584 0.058390
0.031204 0.171272 0.057140
0.039587 0.170959 0.055890
0.050608 0.170647 0.054640
0.065070 0.170334 0.053390
0.083940 0.170022 0.052140
0.108335 0.169709 0.050890
0.139441 0.169397 0.049640
0.178374 0.169084 0.048390
0.225940 0.168772 0.047140
0.282335 0.168459 0.045890
0.346838 0.168147 0.044640
0.417629 0.167834 0.043390
0.491875 0.167522 0.042140
0.566121 0.167209 0.040890
0.636912 0.166897 0.039640
0.701415 0.166584 0.038390
0.757810 0.166272 0.037140
0.805376 0.165959 0.035890
0.843684 0.165959 0.035890
0.874165 0.165959 0.035890
0.897935 0.165959 0.035890
0.916180 0.165959 0.035890
0.930017 0.165959 0.035890
0.940413 0.165959 0.035890
0.948171 0.165959 0.035890
0.953931 0.165959 0.035890
0.958190 0.165959 0.035890
0.961331 0.165959 0.035890
0.963642 0.165959 0.035890
0.013858 0.216680 0.060890
0.016794 0.216368 0.059640
0.020560 0.216055 0.058390
0.025444 0.215743 0.057140
0.031829 0.215430 0.055890
0.040212 0.215118 0.054640
0.051233 0.214805 0.053390
0.065695 0.214493 0.052140
0.084565 0.214180 0.050890
0.108960 0.213868 0.049640
0.140066 0.213555 0.048390
0.178999 0.213243 0.047140
0.226565 0.212930 0.045890
0.282960 0.212618 0.044640
0.347463 0.212305 0.043390
0.418254 0.211993 0.042140
0.492500 0.211680 0.040890
0.566746 0.211368 0.039640
0.637537 0.211055 0.038390
0.702040 0.210743 0.037140
0.758435 0.210430 0.035890
0.805376 0.210430 0.035890
0.843684 0.210430 0.035890
0.874165 0.210430 0.035890
0.897935 0.210430 0.035890
0.916180 0.210430 0.035890
0.930017 0.210430 0.035890
0.940413 0.210430 0.035890
0.948171 0.210430 0.035890
0.953931 0.210430 0.035890
0.958190 0.210430 0.035890
0.961331 0.210430 0.035890
0.963642 0.210430 0.035890
0.014483 0.269203 0.059640
0.017419 0.268890 0.058390
0.021185 0.268578 0.057140
0.026069 0.268265 0.055890
0.032454 0.267953 0.054640
0.040837 0.267640 0.053390
0.051858 0.267328 0.052140
0.066320 0.267015 0.050890
0.085190 0.266703 0.049640
0.109585 0.266390 0.048390
0.140691 0.266078 0.047140
0.179624 0.265765 0.045890
0.227190 0.265453 0.044640
0.283585 0.265140 0.043390
0.348088 0.264828 0.042140
0.418879 0.264515 0.040890
0.493125 0.264203 0.039640
0.567371 0.263890 0.038390
0.638162 0.263578 0.037140
0.702665 0.263265 0.035890
0.758435 0.263265 0.035890
0.805376 0.263265 0.035890
0.843684 0.263265 0.035890
0.874165 0.263265 0.035890
0.897935 0.263265 0.035890
0.916180 0.263265 0.035890
0.930017 0.263265 0.035890
0.940413 0.263265 0.035890
0.948171 0.263265 0.035890
0.953931 0.263265 0.035890
0.958190 0.263265 0.035890
0.961331 0.263265 0.035890
0.963642 0.263265 0.035890
0.015108 0.329406 0.058390
0.018044 0.329093 0.057140
0.021810 0.328781 0.055890
0.026694 0.328468 0.054640
0.033079 0.328156 0.053390
0.041462 0.327843 0.052140
0.052483 0.327531 0.050890
0.066945 0.327218 0.049640
0.085815 0.326906 0.048390
0.110210 0.326593 0.047140
0.141316 0.326281 0.045890
0.180249 0.325968 0.044640
0.227815 0.325656 0.043390
0.284210 0.325343 0.042140
0.348713 0.325031 0.040890
0.419504 0.324718 0.039640
0.493750 0.324406 0.038390
0.567996 0.324093 0.037140
0.638787 0.323781 0.035890
0.702665 0.323781 0.035890
0.758435 0.323781 0.035890
0.805376 0.323781 0.035890
0.843684 0.323781 0.035890
0.874165 0.323781 0.035890
0.897935 0.323781 0.035890
0.916180 0.323781 0.035890
0.930017 0.323781 0.035890
0.940413 0.323781 0.035890
0.948171 0.323781 0.035890
0.953931 0.323781 0.035890
0.958190 0.323781 0.035890
0.961331 0.323781 0.035890
0.963642 0.323781 0.035890
0.015733 0.395567 0.057140
0.018669 0.395254 0.055890
0.022435 0.394942 0.054640
0.027319 0.394629 0.053390
0.033704 0.394317 0.052140
0.042087 0.394004 0.050890
0.053108 0.393692 0.049640
0.067570 0.393379 0.048390
0.086440 0.393067 0.047140
0.110835 0.392754 0.045890
0.141941 0.392442 0.044640
0.180874 0.392129 0.043390
0.228440 0.391817 0.042140
0.284835 0.391504 0.040890
0.349338 0.391192 0.039640
0.420129 0.390879 0.038390
0.494375 0.390567 0.037140
0.568621 0.390254 0.035890
0.638787 0.390254 0.035890
0.702665 0.390254 0.035890
0.758435 0.390254 0.035890
0.805376 0.390254 0.035890
0.843684 0.390254 0.035890
0.874165 0.390254 0.035890
0.897935 0.390254 0.035890
0.916180 0.390254 0.035890
0.930017 0.390254 0.035890
0.940413 0.390254 0.035890
0.948171 0.390254 0.035890
0.953931 0.390254 0.035890
0.958190 0.390254 0.035890
0.961331 0.390254 0.035890
0.963642 0.390254 0.035890
0.016358 0.465000 0.055890
0.019294 0.464688 0.054640
0.023060 0.464375 0.053390
0.027944 0.464063 0.052140
0.034329 0.463750 0.050890
0.042712 0.463438 0.049640
0.053733 0.463125 0.048390
0.068195 0.462813 0.047140
0.087065 0.462500 0.045890
0.111460 0.462188 0.044640
0.142566 0.461875 0.043390
0.181499 0.461563 0.042140
0.229065 0.461250 0.040890
0.285460 0.460938 0.039640
0.349963 0.460625 0.038390
0.420754 0.460313 0.037140
0.495000 0.460000 0.035890
0.568621 0.460000 0.035890
0.638787 0.460000 0.035890
0.702665 0.460000 0.035890
0.758435 0.460000 0.035890
0.805376 0.460000 0.035890
0.843684 0.460000 0.035890
0.874165 0.460000 0.035890
0.897935 0.460000 0.035890
0.916180 0.460000 0.035890
0.930017 0.460000 0.035890
0.940413 0.460000 0.035890
0.948171 0.460000 0.035890
0.953931 0.460000 0.035890
0.958190 0.460000 0.035890
0.961331 0.460000 0.035890
0.963642 0.460000 0.035890
0.016983 0.534433 0.054640
0.019919 0.534121 0.053390
0.023685 0.533808 0.052140
0.028569 0.533496 0.050890
0.034954 0.533183 0.049640
0.043337 0.532871 0.048390
0.054358 0.532558 0.047140
0.068820 0.532246 0.045890
0.087690 0.531933 0.044640
0.112085 0.531621 0.043390
0.143191 0.531308 0.042140
0.182124 0.530996 0.040890
0.229690 0.530683 0.039640
0.286085 0.530371 0.038390
0.350588 0.530058 0.037140
0.421379 0.529746 0.035890
0.495000 0.529746 0.035890
0.568621 0.529746 0.035890
0.638787 0.529746 0.035890
0.702665 0.529746 0.035890
0.758435 0.529746 0.035890
0.805376 0.529746 0.035890
0.843684 0.529746 0.035890
0.874165 0.529746 0.035890
0.897935 0.529746 0.035890
0.916180 0.529746 0.035890
0.930017 0.529746 0.035890
0.940413 0.529746 0.035890
0.948171 0.529746 0.035890
0.953931 0.529746 0.035890
0.958190 0.529746 0.035890
0.961331 0.529746 0.035890
0.963642 0.529746 0.035890
0.017608 0.600594 0.053390
0.020544 0.600282 0.052140
0.024310 0.599969 0.050890
0.029194 0.599657 0.049640
0.035579 0.599344 0.048390
0.043962 0.599032 0.047140
0.054983 0.598719 0.045890
0.069445 0.598407 0.044640
0.088315 0.598094 0.043390
0.112710 0.597782 0.042140
0.143816 0.597469 0.040890
0.182749 0.597157 0.039640
0.230315 0.596844 0.038390
0.286710 0.596532 0.037140
0.351213 0.596219 0.035890
0.421379 0.596219 0.035890
0.495000 0.596219 0.035890
0.568621 0.596219 0.035890
0.638787 0.596219 0.035890
0.702665 0.596219 0.035890
0.758435 0.596219 0.035890
0.805376 0.596219 0.035890
0.843684 0.596219 0.035890
0.874165 0.596219 0.035890
0.897935 0.596219 0.035890
0.916180 0.596219 0.035890
0.930017 0.596219 0.035890
0.940413 0.596219 0.035890
0.948171 0.596219 0.035890
0.953931 0.596219 0.035890
0.958190 0.596219 0.035890
0.961331 0.596219 0.035890
0.963642 0.596219 0.035890
0.018233 0.660797 0.052140
0.021169 0.660485 0.050890
0.024935 0.660172 0.049640
0.029819 0.659860 0.048390
0.036204 0.659547 0.047140
0.044587 0.659235 0.045890
0.055608 0.658922 0.044640
0.070070 0.658610 0.043390
0.088940 0.658297 0.042140
0.113335 0.657985 0.040890
0.144441 0.657672 0.039640
0.183374 0.657360 0.038390
0.230940 0.657047 0.037140
0.287335 0.656735 0.035890
0.351213 0.656735 0.035890
0.421379 0.656735 0.035890
0.495000 0.656735 0.035890
0.568621 0.656735 0.035890
0.638787 0.656735 0.035890
0.702665 0.656735 0.035890
0.758435 0.656735 0.035890
0.805376 0.656735 0.035890
0.843684 0.656735 0.035890
0.874165 0.656735 0.035890
0.897935 0.656735 0.035890
0.916180 0.656735 0.035890
0.930017 0.656735 0.035890
0.940413 0.656735 0.035890
0.948171 0.656735 0.035890
0.953931 0.656735 0.035890
0.958190 0.656735 0.035890
0.961331 0.656735 0.035890
0.963642 0.656735 0.035890
0.018858 0.713320 0.050890
0.021794 0.713007 0.049640
0.025560 0.712695 0.048390
0.030444 0.712382 0.047140
0.036829 0.712070 0.045890
0.045212 0.711757 0.044640
0.056233 0.711445 0.043390
0.070695 0.711132 0.042140
0.089565 0.710820 0.040890
0.113960 0.710507 0.039640
0.145066 0.710195 0.038390
0.183999 0.709882 0.037140
0.231565 0.709570 0.035890
0.287335 0.709570 0.035890
0.351213 0.709570 0.035890
0.421379 0.709570 0.035890
0.495000 0.709570 0.035890
0.568621 0.709570 0.035890
0.638787 0.709570 0.035890
0.702665 0.709570 0.035890
0.758435 0.709570 0.035890
0.805376 0.709570 0.035890
0.843684 0.709570 0.035890
0.874165 0.709570 0.035890
0.897935 0.709570 0.035890
0.916180 0.709570 0.035890
0.930017 0.709570 0.035890
0.940413 0.709570 0.035890
0.948171 0.709570 0.035890
0.953931 0.709570 0.035890
0.958190 0.709570 0.035890
0.961331 0.709570 0.035890
0.963642 0.709570 0.035890
0.019483 0.757478 0.049640
0.022419 0.757166 0.048390
0.026185 0.756853 0.047140
0.031069 0.756541 0.045890
0.037454 0.756228 0.044640
0.045837 0.755916 0.043390
0.056858 0.755603 0.042140
0.071320 0.755291 0.040890
0.090190 0.754978 0.039640
0.114585 0.754666 0.038390
0.145691 0.754353 0.037140
0.184624 0.754041 0.035890
0.231565 0.754041 0.035890
0.287335 0.754041 0.035890
0.351213 0.754041 0.035890
0.421379 0.754041 0.035890
0.495000 0.754041 0.035890
0.568621 0.754041 0.035890
0.638787 0.754041 0.035890
0.702665 0.754041 0.035890
0.758435 0.754041 0.035890
0.805376 0.754041 0.035890
0.843684 0.754041 0.035890
0.874165 0.754041 0.035890
0.897935 0.754041 0.035890
0.916180 0.754041 0.035890
0.930017 0.754041 0.035890
0.940413 0.754041 0.035890
0.948171 0.754041 0.035890
0.953931 0.754041 0.035890
0.958190 0.754041 0.035890
0.961331 0.754041 0.035890
0.963642 0.754041 0.035890
0.020108 0.793457 0.048390
0.023044 0.793145 0.047140
0.026810 0.792832 0.045890
0.031694 0.792520 0.044640
0.038079 0.792207 0.043390
0.046462 0.791895 0.042140
0.057483 0.791582 0.040890
0.071945 0.791270 0.039640
0.090815 0.790957 0.038390
0.115210 0.790645 0.037140
0.146316 0.790332 0.035890
0.184624 0.790332 0.035890
0.231565 0.790332 0.035890
0.287335 0.790332 0.035890
0.351213 0.790332 0.035890
0.421379 0.790332 0.035890
0.495000 0.790332 0.035890
0.568621 0.790332 0.035890
0.638787 0.790332 0.035890
0.702665 0.790332 0.035890
0.758435 0.790332 0.035890
0.805376 0.790332 0.035890
0.843684 0.790332 0.035890
0.874165 0.790332 0.035890
0.897935 0.790332 0.035890
0.916180 0.790332 0.035890
0.930017 0.790332 0.035890
0.940413 0.790332 0.035890
0.948171 0.790332 0.035890
0.953931 0.790332 0.035890
0.958190 0.790332 0.035890
0.961331 0.790332 0.035890
0.963642 0.790332 0.035890
0.020733 0.822022 0.047140
0.023669 0.821709 0.045890
0.027435 0.821397 0.044640
0.032319 0.821084 0.043390
0.038704 0.820772 0.042140
0.047087 0.820459 0.040890
0.058108 0.820147 0.039640
0.072570 0.819834 0.038390
0.091440 0.819522 0.037140
0.115835 0.819209 0.035890
0.146316 0.819209 0.035890
0.184624 0.819209 0.035890
0.231565 0.819209 0.035890
0.287335 0.819209 0.035890
0.351213 0.819209 0.035890
0.421379 0.819209 0.035890
0.495000 0.819209 0.035890
0.568621 0.819209 0.035890
0.638787 0.819209 0.035890
0.702665 0.819209 0.035890
0.758435 0.819209 0.035890
0.805376 0.819209 0.035890
0.843684 0.819209 0.035890
0.874165 0.819209 0.035890
0.897935 0.819209 0.035890
0.916180 0.819209 0.035890
0.930017 0.819209 0.035890
0.940413 0.819209 0.035890
0.948171 0.819209 0.035890
0.953931 0.819209 0.035890
0.958190 0.819209 0.035890
0.961331 0.819209 0.035890
0.963642 0.819209 0.035890
0.021358 0.844228 0.045890
0.024294 0.843915 0.044640
0.028060 0.843603 0.043390
0.032944 0.843290 0.042140
0.039329 0.842978 0.040890
0.047712 0.842665 0.039640
0.058733 0.842353 0.038390
0.073195 0.842040 0.037140
0.092065 0.841728 0.035890
0.115835 0.841728 0.035890
0.146316 0.841728 0.035890
0.184624 0.841728 0.035890
0.231565 0.841728 0.035890
0.287335 0.841728 0.035890
0.351213 0.841728 0.035890
0.421379 0.841728 0.035890
0.495000 0.841728 0.035890
0.568621 0.841728 0.035890
0.638787 0.841728 0.035890
0.702665 0.841728 0.035890
0.758435 0.841728 0.035890
0.805376 0.841728 0.035890
0.843684 0.841728 0.035890
0.874165 0.841728 0.035890
0.897935 0.841728 0.035890
0.916180 0.841728 0.035890
0.930017 0.841728 0.035890
0.940413 0.841728 0.035890
0.948171 0.841728 0.035890
0.953931 0.841728 0.035890
0.958190 0.841728 0.035890
0.961331 0.841728 0.035890
0.963642 0.841728 0.035890
0.021983 0.861200 0.044640
0.024919 0.860888 0.043390
0.028685 0.860575 0.042140
0.033569 0.860263 0.040890
0.039954 0.859950 0.039640
0.048337 0.859638 0.038390
0.059358 0.859325 0.037140
0.073820 0.859013 0.035890
0.092065 0.859013 0.035890
0.115835 0.859013 0.035890
0.146316 0.859013 0.035890
0.184624 0.859013 0.035890
0.231565 0.859013 0.035890
0.287335 0.859013 0.035890
0.351213 0.859013 0.035890
0.421379 0.859013 0.035890
0.495000 0.859013 0.035890
0.568621 0.859013 0.035890
0.638787 0.859013 0.035890
0.702665 0.859013 0.035890
0.758435 0.859013 0.035890
0.805376 0.859013 0.035890
0.843684 0.859013 0.035890
0.874165 0.859013 0.035890
0.897935 0.859013 0.035890
0.916180 0.859013 0.035890
0.930017 0.859013 0.035890
0.940413 0.859013 0.035890
0.948171 0.859013 0.035890
0.953931 0.859013 0.035890
0.958190 0.859013 0.035890
0.961331 0.859013 0.035890
0.963642 0.859013 0.035890
0.022608 0.873996 0.043390
0.025544 0.873684 0.042140
0.029310 0.873371 0.040890
0.034194 0.873059 0.039640
0.040579 0.872746 0.038390
0.048962 0.872434 0.037140
0.059983 0.872121 0.035890
0.073820 0.872121 0.035890
0.092065 0.872121 0.035890
0.115835 0.872121 0.035890
0.146316 0.872121 0.035890
0.184624 0.872121 0.035890
0.231565 0.872121 0.035890
0.287335 0.872121 0.035890
0.351213 0.872121 0.035890
0.421379 0.872121 0.035890
0.495000 0.872121 0.035890
0.568621 0.872121 0.035890
0.638787 0.872121 0.035890
0.702665 0.872121 0.035890
0.758435 0.872121 0.035890
0.805376 0.872121 0.035890
0.843684 0.872121 0.035890
0.874165 0.872121 0.035890
0.897935 0.872121 0.035890
0.916180 0.872121 0.035890
0.930017 0.872121 0.035890
0.940413 0.872121 0.035890
