assets/luts/cinematic.cube
# Cinematic LUT - AI Conduit
TITLE "Cinematic"
LUT_3D_SIZE 9
0.006358 0.026024 0.075890
0.024329 0.024774 0.070890
0.077065 0.023524 0.065890
0.219065 0.022274 0.060890
0.485000 0.021024 0.055890
0.750935 0.019774 0.050890
0.892935 0.018524 0.045890
0.945671 0.017274 0.040890
0.963642 0.016024 0.035890
0.008858 0.039430 0.070890
0.026829 0.038180 0.065890
0.079565 0.036930 0.060890
0.221565 0.035680 0.055890
0.487500 0.034430 0.050890
0.753435 0.033180 0.045890
0.895435 0.031930 0.040890
0.948171 0.030680 0.035890
0.963642 0.030680 0.035890
0.011358 0.085772 0.065890
0.029329 0.084522 0.060890
0.082065 0.083272 0.055890
0.224065 0.082022 0.050890
0.490000 0.080772 0.045890
0.755935 0.079522 0.040890
0.897935 0.078272 0.035890
0.948171 0.078272 0.035890
0.963642 0.078272 0.035890
0.013858 0.216680 0.060890
0.031829 0.215430 0.055890
0.084565 0.214180 0.050890
0.226565 0.212930 0.045890
0.492500 0.211680 0.040890
0.758435 0.210430 0.035890
0.897935 0.210430 0.035890
0.948171 0.210430 0.035890
0.963642 0.210430 0.035890
0.016358 0.465000 0.055890
0.034329 0.463750 0.050890
0.087065 0.462500 0.045890
0.229065 0.461250 0.040890
0.495000 0.460000 0.035890
0.758435 0.460000 0.035890
0.897935 0.460000 0.035890
0.948171 0.460000 0.035890
0.963642 0.460000 0.035890
0.018858 0.713320 0.050890
0.036829 0.712070 0.045890
0.089565 0.710820 0.040890
0.231565 0.709570 0.035890
0.495000 0.709570 0.035890
0.758435 0.709570 0.035890
0.897935 0.709570 0.035890
0.948171 0.709570 0.035890
0.963642 0.709570 0.035890
0.021358 0.844228 0.045890
0.039329 0.842978 0.040890
0.092065 0.841728 0.035890
0.231565 0.841728 0.035890
0.495000 0.841728 0.035890
0.758435 0.841728 0.035890
0.897935 0.841728 0.035890
0.948171 0.841728 0.035890
0.963642 0.841728 0.035890
0.023858 0.890570 0.040890
0.041829 0.889320 0.035890
0.092065 0.889320 0.035890
0.231565 0.889320 0.035890
0.495000 0.889320 0.035890
0.758435 0.889320 0.035890
0.897935 0.889320 0.035890
0.948171 0.889320 0.035890
0.963642 0.889320 0.035890
0.026358 0.903976 0.035890
0.041829 0.903976 0.035890
0.092065 0.903976 0.035890
0.231565 0.903976 0.035890
0.495000 0.903976 0.035890
0.758435 0.903976 0.035890
0.897935 0.903976 0.035890
0.948171 0.903976 0.035890
0.963642 0.903976 0.035890
0.008858 0.024774 0.085220
0.026829 0.023524 0.080220
0.079565 0.022274 0.075220
0.221565 0.021024 0.070220
0.487500 0.019774 0.065220
0.753435 0.018524 0.060220
0.895435 0.017274 0.055220
0.948171 0.016024 0.050220
0.963642 0.016024 0.050220
0.011358 0.038180 0.080220
0.029329 0.036930 0.075220
0.082065 0.035680 0.070220
0.224065 0.034430 0.065220
0.490000 0.033180 0.060220
0.755935 0.031930 0.055220
0.897935 0.030680 0.050220
0.948171 0.030680 0.050220
0.963642 0.030680 0.050220
0.013858 0.084522 0.075220
0.031829 0.083272 0.070220
0.084565 0.082022 0.065220
0.226565 0.080772 0.060220
0.492500 0.079522 0.055220
0.758435 0.078272 0.050220
0.897935 0.078272 0.050220
0.948171 0.078272 0.050220
0.963642 0.078272 0.050220
0.016358 0.215430 0.070220
0.034329 0.214180 0.065220
0.087065 0.212930 0.060220
0.229065 0.211680 0.055220
0.495000 0.210430 0.050220
0.758435 0.210430 0.050220
0.897935 0.210430 0.050220
0.948171 0.210430 0.050220
0.963642 0.210430 0.050220
0.018858 0.463750 0.065220
0.036829 0.462500 0.060220
0.089565 0.461250 0.055220
0.231565 0.460000 0.050220
0.495000 0.460000 0.050220
0.758435 0.460000 0.050220
0.897935 0.460000 0.050220
0.948171 0.460000 0.050220
0.963642 0.460000 0.050220
0.021358 0.712070 0.060220
0.039329 0.710820 0.055220
0.092065 0.709570 0.050220
0.231565 0.709570 0.050220
0.495000 0.709570 0.050220
0.758435 0.709570 0.050220
0.897935 0.709570 0.050220
0.948171 0.709570 0.050220
0.963642 0.709570 0.050220
0.023858 0.842978 0.055220
0.041829 0.841728 0.050220
0.092065 0.841728 0.050220
0.231565 0.841728 0.050220
0.495000 0.841728 0.050220
0.758435 0.841728 0.050220
0.897935 0.841728 0.050220
0.948171 0.841728 0.050220
0.963642 0.841728 0.050220
0.026358 0.889320 0.050220
0.041829 0.889320 0.050220
0.092065 0.889320 0.050220
0.231565 0.889320 0.050220
0.495000 0.889320 0.050220
0.758435 0.889320 0.050220
0.897935 0.889320 0.050220
0.948171 0.889320 0.050220
0.963642 0.889320 0.050220
0.026358 0.903976 0.050220
0.041829 0.903976 0.050220
0.092065 0.903976 0.050220
0.231565 0.903976 0.050220
0.495000 0.903976 0.050220
0.758435 0.903976 0.050220
0.897935 0.903976 0.050220
0.948171 0.903976 0.050220
0.969892 0.903976 0.047720
0.011358 0.023524 0.126755
0.029329 0.022274 0.121755
0.082065 0.021024 0.116755
0.224065 0.019774 0.111755
0.490000 0.018524 0.106755
0.755935 0.017274 0.101755
0.897935 0.016024 0.096755
0.948171 0.016024 0.096755
0.963642 0.016024 0.096755
0.013858 0.036930 0.121755
0.031829 0.035680 0.116755
0.084565 0.034430 0.111755
0.226565 0.033180 0.106755
0.492500 0.031930 0.101755
0.758435 0.030680 0.096755
0.897935 0.030680 0.096755
0.948171 0.030680 0.096755
0.963642 0.030680 0.096755
0.016358 0.083272 0.116755
0.034329 0.082022 0.111755
0.087065 0.080772 0.106755
0.229065 0.079522 0.101755
0.495000 0.078272 0.096755
0.758435 0.078272 0.096755
0.897935 0.078272 0.096755
0.948171 0.078272 0.096755
0.963642 0.078272 0.096755
0.018858 0.214180 0.111755
0.036829 0.212930 0.106755
0.089565 0.211680 0.101755
0.231565 0.210430 0.096755
0.495000 0.210430 0.096755
0.758435 0.210430 0.096755
0.897935 0.210430 0.096755
0.948171 0.210430 0.096755
0.963642 0.210430 0.096755
0.021358 0.462500 0.106755
0.039329 0.461250 0.101755
0.092065 0.460000 0.096755
0.231565 0.460000 0.096755
0.495000 0.460000 0.096755
0.758435 0.460000 0.096755
0.897935 0.460000 0.096755
0.948171 0.460000 0.096755
0.963642 0.460000 0.096755
0.023858 0.710820 0.101755
0.041829 0.709570 0.096755
0.092065 0.709570 0.096755
0.231565 0.709570 0.096755
0.495000 0.709570 0.096755
0.758435 0.709570 0.096755
0.897935 0.709570 0.096755
0.948171 0.709570 0.096755
0.963642 0.709570 0.096755
0.026358 0.841728 0.096755
0.041829 0.841728 0.096755
0.092065 0.841728 0.096755
0.231565 0.841728 0.096755
0.495000 0.841728 0.096755
0.758435 0.841728 0.096755
0.897935 0.841728 0.096755
0.948171 0.841728 0.096755
0.963642 0.841728 0.096755
0.026358 0.889320 0.096755
0.041829 0.889320 0.096755
0.092065 0.889320 0.096755
0.231565 0.889320 0.096755
0.495000 0.889320 0.096755
0.758435 0.889320 0.096755
0.897935 0.889320 0.096755
0.948171 0.889320 0.096755
0.969892 0.889320 0.094255
0.026358 0.903976 0.096755
0.041829 0.903976 0.096755
0.092065 0.903976 0.096755
0.231565 0.903976 0.096755
0.495000 0.903976 0.096755
0.758435 0.903976 0.096755
0.897935 0.903976 0.096755
0.954421 0.903976 0.094255
0.976142 0.903976 0.091755
0.013858 0.022274 0.250976
0.031829 0.021024 0.245976
0.084565 0.019774 0.240976
0.226565 0.018524 0.235976
0.492500 0.017274 0.230976
0.758435 0.016024 0.225976
0.897935 0.016024 0.225976
0.948171 0.016024 0.225976
0.963642 0.016024 0.225976
0.016358 0.035680 0.245976
0.034329 0.034430 0.240976
0.087065 0.033180 0.235976
0.229065 0.031930 0.230976
0.495000 0.030680 0.225976
0.758435 0.030680 0.225976
0.897935 0.030680 0.225976
0.948171 0.030680 0.225976
0.963642 0.030680 0.225976
0.018858 0.082022 0.240976
0.036829 0.080772 0.235976
0.089565 0.079522 0.230976
0.231565 0.078272 0.225976
0.495000 0.078272 0.225976
0.758435 0.078272 0.225976
0.897935 0.078272 0.225976
0.948171 0.078272 0.225976
0.963642 0.078272 0.225976
0.021358 0.212930 0.235976
0.039329 0.211680 0.230976
0.092065 0.210430 0.225976
0.231565 0.210430 0.225976
0.495000 0.210430 0.225976
0.758435 0.210430 0.225976
0.897935 0.210430 0.225976
0.948171 0.210430 0.225976
0.963642 0.210430 0.225976
0.023858 0.461250 0.230976
0.041829 0.460000 0.225976
0.092065 0.460000 0.225976
0.231565 0.460000 0.225976
0.495000 0.460000 0.225976
0.758435 0.460000 0.225976
0.897935 0.460000 0.225976
0.948171 0.460000 0.225976
0.963642 0.460000 0.225976
0.026358 0.709570 0.225976
0.041829 0.709570 0.225976
0.092065 0.709570 0.225976
0.231565 0.709570 0.225976
0.495000 0.709570 0.225976
0.758435 0.709570 0.225976
0.897935 0.709570 0.225976
0.948171 0.709570 0.225976
0.963642 0.709570 0.225976
0.026358 0.841728 0.225976
0.041829 0.841728 0.225976
0.092065 0.841728 0.225976
0.231565 0.841728 0.225976
0.495000 0.841728 0.225976
0.758435 0.841728 0.225976
0.897935 0.841728 0.225976
0.948171 0.841728 0.225976
0.969892 0.841728 0.223476
0.026358 0.889320 0.225976
0.041829 0.889320 0.225976
0.092065 0.889320 0.225976
0.231565 0.889320 0.225976
0.495000 0.889320 0.225976
0.758435 0.889320 0.225976
0.897935 0.889320 0.225976
0.954421 0.889320 0.223476
0.976142 0.889320 0.220976
0.026358 0.903976 0.225976
0.041829 0.903976 0.225976
0.092065 0.903976 0.225976
0.231565 0.903976 0.225976
0.495000 0.903976 0.225976
0.758435 0.903976 0.225976
0.904185 0.903976 0.223476
0.960671 0.903976 0.220976
0.982392 0.903976 0.218476
0.016358 0.021024 0.490000
0.034329 0.019774 0.485000
0.087065 0.018524 0.480000
0.229065 0.017274 0.475000
0.495000 0.016024 0.470000
0.758435 0.016024 0.470000
0.897935 0.016024 0.470000
0.948171 0.016024 0.470000
0.963642 0.016024 0.470000
0.018858 0.034430 0.485000
0.036829 0.033180 0.480000
0.089565 0.031930 0.475000
0.231565 0.030680 0.470000
0.495000 0.030680 0.470000
0.758435 0.030680 0.470000
0.897935 0.030680 0.470000
0.948171 0.030680 0.470000
0.963642 0.030680 0.470000
0.021358 0.080772 0.480000
0.039329 0.079522 0.475000
0.092065 0.078272 0.470000
0.231565 0.078272 0.470000
0.495000 0.078272 0.470000
0.758435 0.078272 0.470000
0.897935 0.078272 0.470000
0.948171 0.078272 0.470000
0.963642 0.078272 0.470000
0.023858 0.211680 0.475000
0.041829 0.210430 0.470000
0.092065 0.210430 0.470000
0.231565 0.210430 0.470000
0.495000 0.210430 0.470000
0.758435 0.210430 0.470000
0.897935 0.210430 0.470000
0.948171 0.210430 0.470000
0.963642 0.210430 0.470000
0.026358 0.460000 0.470000
0.041829 0.460000 0.470000
0.092065 0.460000 0.470000
0.231565 0.460000 0.470000
0.495000 0.460000 0.470000
0.758435 0.460000 0.470000
0.897935 0.460000 0.470000
0.948171 0.460000 0.470000
0.963642 0.460000 0.470000
0.026358 0.709570 0.470000
0.041829 0.709570 0.470000
0.092065 0.709570 0.470000
0.231565 0.709570 0.470000
0.495000 0.709570 0.470000
0.758435 0.709570 0.470000
0.897935 0.709570 0.470000
0.948171 0.709570 0.470000
0.969892 0.709570 0.467500
0.026358 0.841728 0.470000
0.041829 0.841728 0.470000
0.092065 0.841728 0.470000
0.231565 0.841728 0.470000
0.495000 0.841728 0.470000
0.758435 0.841728 0.470000
0.897935 0.841728 0.470000
0.954421 0.841728 0.467500
0.976142 0.841728 0.465000
0.026358 0.889320 0.470000
0.041829 0.889320 0.470000
0.092065 0.889320 0.470000
0.231565 0.889320 0.470000
0.495000 0.889320 0.470000
0.758435 0.889320 0.470000
0.904185 0.889320 0.467500
0.960671 0.889320 0.465000
0.982392 0.889320 0.462500
0.026358 0.903976 0.470000
0.041829 0.903976 0.470000
0.092065 0.903976 0.470000
0.231565 0.903976 0.470000
0.495000 0.903976 0.470000
0.764685 0.903976 0.467500
0.910435 0.903976 0.465000
0.966921 0.903976 0.462500
0.988642 0.903976 0.460000
0.018858 0.019774 0.729024
0.036829 0.018524 0.724024
0.089565 0.017274 0.719024
0.231565 0.016024 0.714024
0.495000 0.016024 0.714024
0.758435 0.016024 0.714024
0.897935 0.016024 0.714024
0.948171 0.016024 0.714024
0.963642 0.016024 0.714024
0.021358 0.033180 0.724024
0.039329 0.031930 0.719024
0.092065 0.030680 0.714024
0.231565 0.030680 0.714024
0.495000 0.030680 0.714024
0.758435 0.030680 0.714024
0.897935 0.030680 0.714024
0.948171 0.030680 0.714024
0.963642 0.030680 0.714024
0.023858 0.079522 0.719024
0.041829 0.078272 0.714024
0.092065 0.078272 0.714024
0.231565 0.078272 0.714024
0.495000 0.078272 0.714024
0.758435 0.078272 0.714024
0.897935 0.078272 0.714024
0.948171 0.078272 0.714024
0.963642 0.078272 0.714024
0.026358 0.210430 0.714024
0.041829 0.210430 0.714024
0.092065 0.210430 0.714024
0.231565 0.210430 0.714024
0.495000 0.210430 0.714024
0.758435 0.210430 0.714024
0.897935 0.210430 0.714024
0.948171 0.210430 0.714024
0.963642 0.210430 0.714024
0.026358 0.460000 0.714024
0.041829 0.460000 0.714024
0.092065 0.460000 0.714024
0.231565 0.460000 0.714024
0.495000 0.460000 0.714024
0.758435 0.460000 0.714024
0.897935 0.460000 0.714024
0.948171 0.460000 0.714024
0.969892 0.460000 0.711524
0.026358 0.709570 0.714024
0.041829 0.709570 0.714024
0.092065 0.709570 0.714024
0.231565 0.709570 0.714024
0.495000 0.709570 0.714024
0.758435 0.709570 0.714024
0.897935 0.709570 0.714024
0.954421 0.709570 0.711524
0.976142 0.709570 0.709024
0.026358 0.841728 0.714024
0.041829 0.841728 0.714024
0.092065 0.841728 0.714024
0.231565 0.841728 0.714024
0.495000 0.841728 0.714024
0.758435 0.841728 0.714024
0.904185 0.841728 0.711524
0.960671 0.841728 0.709024
0.982392 0.841728 0.706524
0.026358 0.889320 0.714024
0.041829 0.889320 0.714024
0.092065 0.889320 0.714024
0.231565 0.889320 0.714024
0.495000 0.889320 0.714024
0.764685 0.889320 0.711524
0.910435 0.889320 0.709024
0.966921 0.889320 0.706524
0.988642 0.889320 0.704024
0.026358 0.903976 0.714024
0.041829 0.903976 0.714024
0.092065 0.903976 0.714024
0.231565 0.903976 0.714024
0.501250 0.903976 0.711524
0.770935 0.903976 0.709024
0.916685 0.903976 0.706524
0.973171 0.903976 0.704024
0.994892 0.903976 0.701524
0.021358 0.018524 0.853245
0.039329 0.017274 0.848245
0.092065 0.016024 0.843245
0.231565 0.016024 0.843245
0.495000 0.016024 0.843245
0.758435 0.016024 0.843245
0.897935 0.016024 0.843245
0.948171 0.016024 0.843245
0.963642 0.016024 0.843245
0.023858 0.031930 0.848245
0.041829 0.030680 0.843245
0.092065 0.030680 0.843245
0.231565 0.030680 0.843245
0.495000 0.030680 0.843245
0.758435 0.030680 0.843245
0.897935 0.030680 0.843245
0.948171 0.030680 0.843245
0.963642 0.030680 0.843245
0.026358 0.078272 0.843245
0.041829 0.078272 0.843245
0.092065 0.078272 0.843245
0.231565 0.078272 0.843245
0.495000 0.078272 0.843245
0.758435 0.078272 0.843245
0.897935 0.078272 0.843245
0.948171 0.078272 0.843245
0.963642 0.078272 0.843245
0.026358 0.210430 0.843245
0.041829 0.210430 0.843245
0.092065 0.210430 0.843245
0.231565 0.210430 0.843245
0.495000 0.210430 0.843245
0.758435 0.210430 0.843245
0.897935 0.210430 0.843245
0.948171 0.210430 0.843245
0.969892 0.210430 0.840745
0.026358 0.460000 0.843245
0.041829 0.460000 0.843245
0.092065 0.460000 0.843245
0.231565 0.460000 0.843245
0.495000 0.460000 0.843245
0.758435 0.460000 0.843245
0.897935 0.460000 0.843245
0.954421 0.460000 0.840745
0.976142 0.460000 0.838245
0.026358 0.709570 0.843245
0.041829 0.709570 0.843245
0.092065 0.709570 0.843245
0.231565 0.709570 0.843245
0.495000 0.709570 0.843245
0.758435 0.709570 0.843245
0.904185 0.709570 0.840745
0.960671 0.709570 0.838245
0.982392 0.709570 0.835745
0.026358 0.841728 0.843245
0.041829 0.841728 0.843245
0.092065 0.841728 0.843245
0.231565 0.841728 0.843245
0.495000 0.841728 0.843245
0.764685 0.841728 0.840745
0.910435 0.841728 0.838245
0.966921 0.841728 0.835745
0.988642 0.841728 0.833245
0.026358 0.889320 0.843245
0.041829 0.889320 0.843245
0.092065 0.889320 0.843245
0.231565 0.889320 0.843245
0.501250 0.889320 0.840745
0.770935 0.889320 0.838245
0.916685 0.889320 0.835745
0.973171 0.889320 0.833245
0.994892 0.889320 0.830745
0.026358 0.903976 0.843245
0.041829 0.903976 0.843245
0.092065 0.903976 0.843245
0.237815 0.903976 0.840745
0.507500 0.903976 0.838245
0.777185 0.903976 0.835745
0.922935 0.903976 0.833245
0.979421 0.903976 0.830745
1.000000 0.903976 0.828245
0.023858 0.017274 0.894780
0.041829 0.016024 0.889780
0.092065 0.016024 0.889780
0.231565 0.016024 0.889780
0.495000 0.016024 0.889780
0.758435 0.016024 0.889780
0.897935 0.016024 0.889780
0.948171 0.016024 0.889780
0.963642 0.016024 0.889780
0.026358 0.030680 0.889780
0.041829 0.030680 0.889780
0.092065 0.030680 0.889780
0.231565 0.030680 0.889780
0.495000 0.030680 0.889780
0.758435 0.030680 0.889780
0.897935 0.030680 0.889780
0.948171 0.030680 0.889780
0.963642 0.030680 0.889780
0.026358 0.078272 0.889780
0.041829 0.078272 0.889780
0.092065 0.078272 0.889780
0.231565 0.078272 0.889780
0.495000 0.078272 0.889780
0.758435 0.078272 0.889780
0.897935 0.078272 0.889780
0.948171 0.078272 0.889780
0.969892 0.078272 0.887280
0.026358 0.210430 0.889780
0.041829 0.210430 0.889780
0.092065 0.210430 0.889780
0.231565 0.210430 0.889780
0.495000 0.210430 0.889780
0.758435 0.210430 0.889780
0.897935 0.210430 0.889780
0.954421 0.210430 0.887280
0.976142 0.210430 0.884780
0.026358 0.460000 0.889780
0.041829 0.460000 0.889780
0.092065 0.460000 0.889780
0.231565 0.460000 0.889780
0.495000 0.460000 0.889780
0.758435 0.460000 0.889780
0.904185 0.460000 0.887280
0.960671 0.460000 0.884780
0.982392 0.460000 0.882280
0.026358 0.709570 0.889780
0.041829 0.709570 0.889780
0.092065 0.709570 0.889780
0.231565 0.709570 0.889780
0.495000 0.709570 0.889780
0.764685 0.709570 0.887280
0.910435 0.709570 0.884780
0.966921 0.709570 0.882280
0.988642 0.709570 0.879780
0.026358 0.841728 0.889780
0.041829 0.841728 0.889780
0.092065 0.841728 0.889780
0.231565 0.841728 0.889780
0.501250 0.841728 0.887280
0.770935 0.841728 0.884780
0.916685 0.841728 0.882280
0.973171 0.841728 0.879780
0.994892 0.841728 0.877280
0.026358 0.889320 0.889780
0.041829 0.889320 0.889780
0.092065 0.889320 0.889780
0.237815 0.889320 0.887280
0.507500 0.889320 0.884780
0.777185 0.889320 0.882280
0.922935 0.889320 0.879780
0.979421 0.889320 0.877280
1.000000 0.889320 0.874780
0.026358 0.903976 0.889780
0.041829 0.903976 0.889780
0.098315 0.903976 0.887280
0.244065 0.903976 0.884780
0.513750 0.903976 0.882280
0.783435 0.903976 0.879780
0.929185 0.903976 0.877280
0.985671 0.903976 0.874780
1.000000 0.903976 0.872280
0.026358 0.016024 0.904110
0.041829 0.016024 0.904110
0.092065 0.016024 0.904110
0.231565 0.016024 0.904110
0.495000 0.016024 0.904110
0.758435 0.016024 0.904110
0.897935 0.016024 0.904110
0.948171 0.016024 0.904110
0.963642 0.016024 0.904110
0.026358 0.030680 0.904110
0.041829 0.030680 0.904110
0.092065 0.030680 0.904110
0.231565 0.030680 0.904110
0.495000 0.030680 0.904110
0.758435 0.030680 0.904110
0.897935 0.030680 0.904110
0.948171 0.030680 0.904110
0.969892 0.030680 0.901610
0.026358 0.078272 0.904110
0.041829 0.078272 0.904110
0.092065 0.078272 0.904110
0.231565 0.078272 0.904110
0.495000 0.078272 0.904110
0.758435 0.078272 0.904110
0.897935 0.078272 0.904110
0.954421 0.078272 0.901610
0.976142 0.078272 0.899110
0.026358 0.210430 0.904110
0.041829 0.210430 0.904110
0.092065 0.210430 0.904110
0.231565 0.210430 0.904110
0.495000 0.210430 0.904110
0.758435 0.210430 0.904110
0.904185 0.210430 0.901610
0.960671 0.210430 0.899110
0.982392 0.210430 0.896610
0.026358 0.460000 0.904110
0.041829 0.460000 0.904110
0.092065 0.460000 0.904110
0.231565 0.460000 0.904110
0.495000 0.460000 0.904110
0.764685 0.460000 0.901610
0.910435 0.460000 0.899110
0.966921 0.460000 0.896610
0.988642 0.460000 0.894110
0.026358 0.709570 0.904110
0.041829 0.709570 0.904110
0.092065 0.709570 0.904110
0.231565 0.709570 0.904110
0.501250 0.709570 0.901610
0.770935 0.709570 0.899110
0.916685 0.709570 0.896610
0.973171 0.709570 0.894110
0.994892 0.709570 0.891610
0.026358 0.841728 0.904110
0.041829 0.841728 0.904110
0.092065 0.841728 0.904110
0.237815 0.841728 0.901610
0.507500 0.841728 0.899110
0.777185 0.841728 0.896610
0.922935 0.841728 0.894110
0.979421 0.841728 0.891610
1.000000 0.841728 0.889110
0.026358 0.889320 0.904110
0.041829 0.889320 0.904110
0.098315 0.889320 0.901610
0.244065 0.889320 0.899110
0.513750 0.889320 0.896610
0.783435 0.889320 0.894110
0.929185 0.889320 0.891610
0.985671 0.889320 0.889110
1.000000 0.889320 0.886610
0.026358 0.903976 0.904110
0.048079 0.903976 0.901610
0.104565 0.903976 0.899110
0.250315 0.903976 0.896610
0.520000 0.903976 0.894110
0.789685 0.903976 0.891610
0.935435 0.903976 0.889110
0.991921 0.903976 0.886610
1.000000 0.903976 0.884110
