assets/luts/cinematic.cube
# Cinematic LUT - AI Conduit
TITLE "Cinematic"
LUT_3D_SIZE 5
0.006358 0.026024 0.075890
0.077065 0.023524 0.065890
0.485000 0.021024 0.055890
0.892935 0.018524 0.045890
0.963642 0.016024 0.035890
0.011358 0.085772 0.065890
0.082065 0.083272 0.055890
0.490000 0.080772 0.045890
0.897935 0.078272 0.035890
0.963642 0.078272 0.035890
0.016358 0.465000 0.055890
0.087065 0.462500 0.045890
0.495000 0.460000 0.035890
0.897935 0.460000 0.035890
0.963642 0.460000 0.035890
0.021358 0.844228 0.045890
0.092065 0.841728 0.035890
0.495000 0.841728 0.035890
0.897935 0.841728 0.035890
0.963642 0.841728 0.035890
0.026358 0.903976 0.035890
0.092065 0.903976 0.035890
0.495000 0.903976 0.035890
0.897935 0.903976 0.035890
0.963642 0.903976 0.035890
0.011358 0.023524 0.126755
0.082065 0.021024 0.116755
0.490000 0.018524 0.106755
0.897935 0.016024 0.096755
0.963642 0.016024 0.096755
0.016358 0.083272 0.116755
0.087065 0.080772 0.106755
0.495000 0.078272 0.096755
0.897935 0.078272 0.096755
0.963642 0.078272 0.096755
0.021358 0.462500 0.106755
0.092065 0.460000 0.096755
0.495000 0.460000 0.096755
0.897935 0.460000 0.096755
0.963642 0.460000 0.096755
0.026358 0.841728 0.096755
0.092065 0.841728 0.096755
0.495000 0.841728 0.096755
0.897935 0.841728 0.096755
0.963642 0.841728 0.096755
0.026358 0.903976 0.096755
0.092065 0.903976 0.096755
0.495000 0.903976 0.096755
0.897935 0.903976 0.096755
0.976142 0.903976 0.091755
0.016358 0.021024 0.490000
0.087065 0.018524 0.480000
0.495000 0.016024 0.470000
0.897935 0.016024 0.470000
0.963642 0.016024 0.470000
0.021358 0.080772 0.480000
0.092065 0.078272 0.470000
0.495000 0.078272 0.470000
0.897935 0.078272 0.470000
0.963642 0.078272 0.470000
0.026358 0.460000 0.470000
0.092065 0.460000 0.470000
0.495000 0.460000 0.470000
0.897935 0.460000 0.470000
0.963642 0.460000 0.470000
0.026358 0.841728 0.470000
0.092065 0.841728 0.470000
0.495000 0.841728 0.470000
0.897935 0.841728 0.470000
0.976142 0.841728 0.465000
0.026358 0.903976 0.470000
0.092065 0.903976 0.470000
0.495000 0.903976 0.470000
0.910435 0.903976 0.465000
0.988642 0.903976 0.460000
0.021358 0.018524 0.853245
0.092065 0.016024 0.843245
0.495000 0.016024 0.843245
0.897935 0.016024 0.843245
0.963642 0.016024 0.843245
0.026358 0.078272 0.843245
0.092065 0.078272 0.843245
0.495000 0.078272 0.843245
0.897935 0.078272 0.843245
0.963642 0.078272 0.843245
0.026358 0.460000 0.843245
0.092065 0.460000 0.843245
0.495000 0.460000 0.843245
0.897935 0.460000 0.843245
0.976142 0.460000 0.838245
0.026358 0.841728 0.843245
0.092065 0.841728 0.843245
0.495000 0.841728 0.843245
0.910435 0.841728 0.838245
0.988642 0.841728 0.833245
0.026358 0.903976 0.843245
0.092065 0.903976 0.843245
0.507500 0.903976 0.838245
0.922935 0.903976 0.833245
1.000000 0.903976 0.828245
0.026358 0.016024 0.904110
0.092065 0.016024 0.904110
0.495000 0.016024 0.904110
0.897935 0.016024 0.904110
0.963642 0.016024 0.904110
0.026358 0.078272 0.904110
0.092065 0.078272 0.904110
0.495000 0.078272 0.904110
0.897935 0.078272 0.904110
0.976142 0.078272 0.899110
0.026358 0.460000 0.904110
0.092065 0.460000 0.904110
0.495000 0.460000 0.904110
0.910435 0.460000 0.899110
0.988642 0.460000 0.894110
0.026358 0.841728 0.904110
0.092065 0.841728 0.904110
0.507500 0.841728 0.899110
0.922935 0.841728 0.894110
1.000000 0.841728 0.889110
0.026358 0.903976 0.904110
0.104565 0.903976 0.899110
0.520000 0.903976 0.894110
0.935435 0.903976 0.889110
1.000000 0.903976 0.884110
